X: 33884
T: Red Haired Man's Wife, The
R: waltz
M: 3/4
K: Dmajor
dc|{c}B2 A>F EF|D3 E FA|{G}B3 F AF|{F}E2 D2 D2|D4 D>E|
F2 A2 Bc|d3 c BA/B/|c3 B AF|A2 B>d c/>B/A/F/|{F}E4 DE|
F2 A2 Bc|d3 c ed|c3 B AF|A2 B>d c/>B/A/F/|{F}E4 dc|
B/d/c/B/ AFEF|D3 E FA|{G}B3 F AF|E2 D2 D2|D4||

